!!!COM: Debussy, (Achille-)Claude
!!!OTL: En blanc et noir (In White and Black) for Two Pianos
!!!OMV: I: Avec emportement (With Anger)
!!!example: 166
!!!work: Deb-44
**kern	**kern	**dynam	**kern	**kern	**dynam
*part2	*part2	*part2	*part1	*part1	*part1
*staff4	*staff3	*	*staff2	*staff1	*
*I"Piano	*	*	*I"Piano	*	*
*I'Pno.	*	*	*I'Pno.	*	*
*clefF4	*clefG2	*	*clefG2	*clefG2	*
*k[f#c#]	*k[f#c#]	*	*k[f#c#]	*k[f#c#]	*
*D:	*D:	*	*D:	*D:	*
*M3/4	*M3/4	*	*M3/4	*M3/4	*
*MM198	*MM198	*	*MM198	*MM198	*
=83	=83	=83	=83	=83	=83
!	!	!	!	!LO:TX:t=e cresc.	!
(4AA	(8aL	p	(2.BB 2.B	(4.d 4.f# 4.b	p
!	!LO:TX:t=e cresc.	!	!	!	!
.	8AJ	.	.	.	.
8B)	8AL	.	.	.	.
8r	8aJ	.	.	8c# 8e 8a	.
4r	8aL	.	.	[4d [4f# [4b	.
.	8AJ	.	.	.	.
=84	=84	=84	=84	=84	=84
(4AA	8AL	.	4C# 4c#	8dL] 8f#] 8b]	.
.	8aJ	.	.	8c#J 8e 8a	.
8B)	8aL	.	4D 4d	4.B 4.d 4.g	.
8r	8AJ	.	.	.	.
4r	8AL	.	4E) 4e	.	.
.	8aJ)	.	.	8A) 8c# 8f#	.
=85	=85	=85	=85	=85	=85
(4AA	(8aL	.	(2.F# 2.f#	(4.G 4.B 4.e	.
.	8AJ	.	.	.	.
8B)	8AL	.	.	.	.
8r	8aJ	.	.	8F# 8A 8d	.
4r	8aL	.	.	[4G [4B [4e	.
.	8AJ	.	.	.	.
=86	=86	=86	=86	=86	=86
(4AA	8AL	.	4E 4e	8GL] 8B] 8e]	.
.	8aJ	.	.	8AJ 8c# 8f#	.
8B)	8aL	.	4D 4d	4.B 4.d 4.g	.
8r	8AJ	.	.	.	.
4r	8AL	.	4C#) 4c#	.	.
.	8aJ)	.	.	8c#) 8e 8a	.
*	*	*	*clefF4	*	*
=87	=87	=87	=87	=87	=87
!	!LO:TX:t=cresc.	!	!	!LO:TX:t=cresc.	!
(4AA	(8aL	.	4DDD' 4DD	(4.d~ 4.f# 4.b	.
.	8aaJ	.	.	.	.
8B)	8aaL	.	4EEE' 4EE	.	.
8r	8aJ	.	.	8c#) 8e 8a	.
4r	8aL	.	4FFF#' 4FF#	([4d [4f# [4b	.
.	8aaJ	.	.	.	.
=88	=88	=88	=88	=88	=88
(4AA	8aaL	.	4GGG' 4GG	8dL] 8f#] 8b]	.
.	8aJ	.	.	8c#J) 8e 8a	.
8B)	8aL	.	4AAA' 4AA	(4.B~ 4.d 4.g	.
8r	8aaJ	.	.	.	.
4r	8aaL	.	4BBB' 4BB	.	.
.	8aJ)	.	.	8A) 8c# 8f#	.
=89	=89	=89	=89	=89	=89
(4AA	(8aL	.	4CC#' 4C#	(4.G~ 4.B 4.e	.
.	8aaJ	.	.	.	.
8B)	8aaL	.	4BBB' 4BB	.	.
8r	8aJ	.	.	8F#) 8A 8d	.
4r	8aL	.	4AAA' 4AA	([4G~ [4B [4e	.
.	8aaJ	.	.	.	.
=90	=90	=90	=90	=90	=90
(4AA	8aaL	.	4GGG' 4GG	8GL]) 8B] 8e]	.
.	8aJ	.	.	8AJ 8c# 8f#	.
8B)	8aL	.	4FFF#' 4FF#	(4.B~ 4.d 4.g	.
8r	8aaJ	.	.	.	.
4r	8aaL	.	4EEE' 4EE	.	.
.	8aJ)	.	.	8c#) 8e 8a	.
=	=	=	=	=	=
*-	*-	*-	*-	*-	*-
!!!system-decoration: {(s1,s2)}{(s3,s4)}
!!!CDT: 1862/08/22-1918/03/25
!!!CBL: St Germain-en-Laye, France
!!!CDL: Paris, France
!!!CNT: French
!!!AGN: Instrumental; Keyboard
!!!MCN:
!!!MDT: 1916/01/22
!!!MGN:
!!!MLC: Paris, France
!!!MPD: 1916
!!!MPN: Rummel, Thérèse; Rummel, Walter
!!!ODT: 1915
!!!PDT: 1915
!!!excerpt-start-measure: 83
!!!excerpt-end-measure: 90
!!!excerpt-start-time: 1:41
!!!excerpt-end-time: 1:53
!!!EEV: 2020/01/22
!!!ONB: Converted from MusicXML on 2020/01/22
